src/static/logos/trac.svg

<?xml version="1.0" encoding="UTF-8" standalone="no"?>
<svg width="256px" height="307px" viewBox="0 0 256 307" version="1.1" xmlns="http://www.w3.org/2000/svg" xmlns:xlink="http://www.w3.org/1999/xlink" preserveAspectRatio="xMidYMid">
    <g>
        <path d="M26.4093561,241.05844 C37.8806238,254.658722 57.4624783,267.923713 69.8210392,262.918839 C82.1802098,257.916133 87.1887892,221.326923 82.7596251,216.453908 C78.3304611,211.580892 54.663941,171.928749 36.2581158,177.6606 C17.8523814,183.392191 14.9380884,227.458159 26.4093561,241.05844 L26.4093561,241.05844 Z" fill="#C00000"></path>
        <path d="M30.9136655,140.047477 C42.1430065,158.72045 75.4676988,182.301306 96.8847574,173.916424 C118.301538,165.531386 103.64799,136.138704 91.780881,116.675364 C90.0667773,113.864272 89.3296528,102.03343 81.7181537,91.9017596 C74.1066546,81.7700891 62.0278916,75.1847066 52.8877272,78.2451066 C26.9699184,86.9228719 19.4423978,126.447196 30.9136655,140.047477 L30.9136655,140.047477 Z" fill="#C00000"></path>
        <path d="M127.12069,132.183371 C138.591897,145.783436 140.855109,159.747465 158.599964,159.067592 C176.344819,158.387719 189.955812,116.272769 189.461948,99.2216792 C188.967868,82.1706501 172.659983,43.6645126 143.879268,51.8293134 C115.098275,59.9939582 113.98507,94.8627689 127.12069,132.183371 L127.12069,132.183371 Z" fill="#C00000"></path>
        <path d="M197.259881,185.862996 C200.445891,202.626595 213.74783,214.320861 233.497737,208.906326 C253.247169,203.494264 258.427771,152.676859 253.997306,147.804209 C249.56901,142.930949 240.73243,117.459287 222.325677,123.191165 C203.920069,128.922955 190.233657,164.340425 197.259881,185.862996 L197.259881,185.862996 Z" fill="#C00000"></path>
        <path d="M96.0676019,303.560093 C122.87733,314.192338 132.226337,286.339304 161.822626,278.154165 C191.419133,269.968965 216.769931,283.332607 225.353511,257.070656 C236.35472,223.411018 209.355324,228.460589 187.695785,213.529404 C166.036063,198.597568 171.586036,181.499752 138.126343,189.5557 C102.050659,198.241591 120.332409,234.343995 106.326041,247.552212 C85.9890712,266.731557 79.5284856,296.99931 96.0676019,303.560093 L96.0676019,303.560093 Z" fill="#C00000"></path>
        <path d="M1.66749887,166.619745 C3.98203937,172.98371 15.0340804,179.162787 20.7502434,176.637755 C26.4664064,174.112723 26.2232125,167.563029 23.5599061,159.543096 C20.8966607,151.523379 8.18571314,141.412535 3.76188053,143.213415 C-0.662034742,145.014085 -0.647040755,160.25578 1.66749887,166.619745 L1.66749887,166.619745 Z" fill="#C00000"></path>
        <path d="M28.4483856,62.6554474 C30.7628867,69.0194234 33.903331,80.347739 42.8721026,76.9082513 C51.8408131,73.4685468 54.6132267,67.2412362 51.9499203,59.2213025 C49.2863971,51.2014298 38.4393166,39.3968538 34.0154847,41.19757 C29.5916589,42.998308 26.1338846,56.2914715 28.4483856,62.6554474 L28.4483856,62.6554474 Z" fill="#C00000"></path>
        <path d="M129.079265,27.3437219 C131.393766,33.7076978 143.123204,44.3762175 148.83928,41.8512096 C154.555296,39.3259849 157.429872,27.2200895 154.766565,19.2001558 C152.103072,11.1803915 139.86689,-1.40374622 135.443062,0.396986298 C131.019235,2.1977189 126.764752,20.9797025 129.079265,27.3437219 L129.079265,27.3437219 Z" fill="#C00000"></path>
        <path d="M215.147974,106.688478 C217.462475,113.052454 221.552035,119.43404 227.268545,116.908911 C232.98391,114.383869 239.466057,108.868543 236.804052,100.848243 C234.139878,92.8285535 227.885167,74.4679553 223.459148,76.2692162 C219.035359,78.0700843 212.833473,100.324502 215.147974,106.688478 L215.147974,106.688478 Z" fill="#C00000"></path>
    </g>
</svg>

<svg width="256" height="307" xmlns="http://www.w3.org/2000/svg" preserveAspectRatio="xMidYMid"><path d="M26.41 241.058c11.47 13.6 31.052 26.866 43.411 21.86 12.36-5.002 17.368-41.591 12.939-46.464-4.43-4.873-28.096-44.525-46.502-38.793-18.406 5.731-21.32 49.797-9.849 63.397zm4.504-101.011c11.229 18.673 44.554 42.254 65.97 33.87 21.418-8.386 6.764-37.778-5.103-57.242-1.714-2.81-2.451-14.642-10.063-24.773-7.611-10.132-19.69-16.717-28.83-13.657-25.918 8.678-33.446 48.202-21.974 61.802zm96.206-7.864c11.472 13.6 13.735 27.564 31.48 26.885 17.745-.68 31.356-42.795 30.862-59.846-.494-17.051-16.802-55.557-45.583-47.393-28.78 8.165-29.894 43.034-16.758 80.354zm70.14 53.68c3.186 16.764 16.488 28.458 36.238 23.043 19.75-5.412 24.93-56.23 20.5-61.102-4.429-4.873-13.266-30.345-31.672-24.613-18.406 5.732-32.092 41.15-25.066 62.672zM96.068 303.56c26.81 10.632 36.158-17.22 65.755-25.406 29.596-8.185 54.947 5.179 63.53-21.083 11.002-33.66-15.998-28.61-37.657-43.542-21.66-14.931-16.11-32.03-49.57-23.973-36.075 8.686-17.794 44.788-31.8 57.996C85.989 266.732 79.528 297 96.068 303.56zM1.667 166.62c2.315 6.364 13.367 12.543 19.083 10.018 5.716-2.525 5.473-9.075 2.81-17.095s-15.374-18.13-19.798-16.33c-4.424 1.801-4.409 17.043-2.095 23.407zM28.448 62.655c2.315 6.364 5.455 17.693 14.424 14.253 8.969-3.44 11.741-9.667 9.078-17.687-2.664-8.02-13.51-19.824-17.935-18.023-4.423 1.8-7.881 15.093-5.567 21.457zM129.08 27.344c2.314 6.364 14.043 17.032 19.76 14.507 5.715-2.525 8.59-14.63 5.927-22.65-2.664-8.02-14.9-20.605-19.324-18.804-4.424 1.8-8.678 20.583-6.364 26.947zm86.068 79.344c2.314 6.364 6.404 12.746 12.12 10.22 5.716-2.524 12.198-8.04 9.536-16.06-2.664-8.02-8.919-26.38-13.345-24.579-4.424 1.801-10.626 24.056-8.311 30.42z" fill="#C00000"/></svg>
